hero/solid/exclamation-circle.svg

<svg width="24" height="24" viewBox="0 0 24 24" fill="none" xmlns="http://www.w3.org/2000/svg">
<path fill-rule="evenodd" clip-rule="evenodd" d="M2.25 12C2.25 6.61522 6.61522 2.25 12 2.25C17.3848 2.25 21.75 6.61522 21.75 12C21.75 17.3848 17.3848 21.75 12 21.75C6.61522 21.75 2.25 17.3848 2.25 12ZM12 8.25C12.4142 8.25 12.75 8.58579 12.75 9V12.75C12.75 13.1642 12.4142 13.5 12 13.5C11.5858 13.5 11.25 13.1642 11.25 12.75V9C11.25 8.58579 11.5858 8.25 12 8.25ZM12 16.5C12.4142 16.5 12.75 16.1642 12.75 15.75C12.75 15.3358 12.4142 15 12 15C11.5858 15 11.25 15.3358 11.25 15.75C11.25 16.1642 11.5858 16.5 12 16.5Z" fill="#0F172A"/>
</svg>

<svg viewBox="0 0 24 24" xmlns="http://www.w3.org/2000/svg"><path fill-rule="evenodd" d="M2.25 12c0-5.385 4.36-9.75 9.75-9.75 5.38 0 9.75 4.36 9.75 9.75 0 5.38-4.37 9.75-9.75 9.75 -5.39 0-9.75-4.37-9.75-9.75ZM12 8.25v0c.41 0 .75.33.75.75v3.75 0c0 .41-.34.75-.75.75 -.42 0-.75-.34-.75-.75V9v0c0-.42.33-.75.75-.75Zm0 8.25v0c.41 0 .75-.34.75-.75 0-.42-.34-.75-.75-.75v0c-.42 0-.75.33-.75.75 0 .41.33.75.75.75Z"/></svg>
